MonoIcons/scalable/status/network-cellular-edge-symbolic.svg

<?xml version="1.0" encoding="UTF-8"?>
<svg height="16px" viewBox="0 0 16 16" width="16px" xmlns="http://www.w3.org/2000/svg">
    <path d="m 3 0 c -1.660156 0 -3 1.339844 -3 3 v 10 c 0 1.660156 1.339844 3 3 3 h 10 c 1.660156 0 3 -1.339844 3 -3 v -10 c 0 -1.660156 -1.339844 -3 -3 -3 z m 3 3 h 6 v 2 h -6 v 2 h 4 v 2 h -4 v 2 h 0.03125 h 5.96875 v 2 h -6 c -0.625 0 -0.992188 -0.242188 -1.34375 -0.5625 c -0.332031 -0.304688 -0.644531 -0.789062 -0.625 -1.4375 h -0.03125 v -6 h 0.03125 c -0.011719 -0.476562 0.109375 -1 0.46875 -1.40625 c 0.355469 -0.402344 0.933594 -0.582031 1.5 -0.5625 z m 0 0" fill="#2e3436"/>
</svg>

<svg width="16" height="16" viewBox="0 0 16 16" fill="none" xmlns="http://www.w3.org/2000/svg">
<g clip-path="url(#clip0_231_987)">
<path d="M3 0C1.33984 0 0 1.33984 0 3V13C0 14.6602 1.33984 16 3 16H13C14.6602 16 16 14.6602 16 13V3C16 1.33984 14.6602 0 13 0H3ZM6 3H12V5H6V7H10V9H6V11H6.03125H12V13H6C5.375 13 5.00781 12.7578 4.65625 12.4375C4.32422 12.1328 4.01172 11.6484 4.03125 11H4V5H4.03125C4.01953 4.52344 4.14062 4 4.5 3.59375C4.85547 3.19141 5.43359 3.01172 6 3.03125V3Z" fill="#2E3436"/>
</g>
<defs>
<clipPath id="clip0_231_987">
<rect width="16" height="16" fill="white"/>
</clipPath>
</defs>
</svg>
